public/logos/OD.svg

<?xml version="1.0" encoding="UTF-8"?>
<svg xmlns="http://www.w3.org/2000/svg" xmlns:xlink="http://www.w3.org/1999/xlink" width="179pt" height="48.69pt" viewBox="0 0 179 48.69" version="1.1">
<defs>
<clipPath id="clip1">
  <path d="M 0 0 L 34 0 L 34 48.691406 L 0 48.691406 Z M 0 0 "/>
</clipPath>
</defs>
<g id="surface1">
<path style=" stroke:none;fill-rule:nonzero;fill:rgb(75.401306%,9.754944%,32.542419%);fill-opacity:1;" d="M 48.691406 29.792969 C 45.910156 31.996094 41.15625 36.054688 39.070312 36.632812 C 37.214844 36.402344 35.589844 33.851562 34.894531 31.996094 C 28.867188 36.167969 13.796875 39.414062 9.160156 35.707031 C 7.535156 34.429688 6.492188 33.386719 6.492188 31.878906 C 6.492188 30.953125 6.722656 30.140625 7.070312 29.214844 C 7.417969 28.285156 8.113281 27.242188 8.925781 26.199219 L 11.59375 22.835938 C 4.40625 22.140625 8.464844 18.78125 15.417969 18.78125 C 17.851562 16.34375 20.289062 13.910156 21.910156 12.867188 C 23.535156 11.824219 24.925781 11.359375 26.199219 11.359375 C 26.316406 11.359375 26.433594 11.359375 26.546875 11.476562 C 26.664062 11.589844 26.664062 11.707031 26.664062 11.824219 C 26.664062 11.9375 26.664062 12.054688 26.546875 12.289062 C 26.433594 12.519531 26.316406 12.636719 26.085938 12.867188 L 21.796875 17.621094 C 25.851562 17.039062 29.332031 16.113281 31.882812 14.953125 C 34.433594 13.792969 35.476562 12.519531 35.476562 11.359375 C 35.476562 10.664062 35.011719 10.085938 34.085938 9.738281 C 33.15625 9.273438 31.996094 9.15625 30.488281 9.15625 C 28.402344 9.15625 25.96875 9.390625 23.300781 9.96875 C 20.636719 10.433594 17.851562 11.242188 14.722656 12.289062 C 15.765625 12.636719 15.882812 13.214844 14.957031 14.027344 L 8.695312 15.648438 C 8 15.765625 4.058594 17.734375 4.867188 14.835938 C 5.566406 12.289062 8.460938 8.808594 9.96875 7.882812 C 10.664062 7.417969 11.59375 6.953125 12.867188 6.605469 C 19.128906 4.75 31.1875 1.738281 37.792969 5.5625 C 41.734375 8.925781 38.488281 14.835938 34.199219 16.34375 C 30.375 17.621094 25.738281 19.242188 19.246094 19.9375 L 17.851562 21.214844 C 21.449219 21.910156 38.722656 22.722656 31.882812 30.71875 C 31.535156 31.066406 31.1875 31.53125 30.839844 31.878906 C 32.113281 31.300781 33.503906 30.488281 34.78125 29.097656 C 35.011719 28.632812 35.242188 28.171875 35.589844 27.707031 C 36.519531 26.429688 37.679688 25.15625 39.300781 24.113281 C 42.894531 21.5625 47.300781 19.476562 51.820312 18.894531 C 52.402344 18.78125 53.910156 19.011719 54.488281 19.589844 C 54.953125 20.171875 55.183594 20.402344 55.414062 20.867188 C 55.53125 20.980469 55.414062 21.328125 55.300781 21.445312 C 54.953125 21.679688 54.140625 22.140625 53.675781 22.375 C 55.648438 23.417969 55.765625 24.574219 52.75 27.9375 C 47.878906 34.546875 53.675781 33.617188 58.546875 28.75 L 58.546875 28.632812 C 59.820312 27.359375 60.980469 26.199219 61.90625 25.15625 C 62.835938 24.113281 63.183594 23.648438 63.996094 22.605469 C 62.601562 22.375 60.285156 23.070312 59.707031 22.605469 C 59.472656 22.257812 60.402344 20.867188 61.210938 19.9375 C 63.300781 17.15625 64.804688 17.039062 68.050781 16.925781 C 68.167969 16.691406 68.632812 16.34375 68.746094 15.996094 C 70.488281 12.054688 78.023438 10.894531 72.691406 16.808594 C 73.5 16.808594 75.007812 17.273438 75.472656 17.039062 C 75.589844 16.925781 75.125 18.78125 74.777344 19.242188 C 74.082031 20.519531 72.804688 22.140625 71.992188 22.488281 C 71.648438 22.722656 70.140625 22.835938 69.558594 22.835938 C 69.097656 22.835938 68.746094 22.722656 68.515625 22.722656 C 68.285156 22.722656 68.050781 22.835938 67.820312 22.835938 C 66.429688 24.460938 65.386719 26.082031 64.574219 27.824219 C 63.761719 29.5625 63.300781 31.183594 63.300781 32.460938 C 63.300781 32.921875 63.414062 33.273438 63.648438 33.503906 C 63.878906 33.734375 64.226562 33.851562 64.691406 33.851562 C 65.386719 33.851562 66.429688 33.386719 67.9375 32.460938 C 69.210938 31.648438 70.949219 30.375 73.039062 28.632812 C 73.269531 28.171875 73.5 27.589844 73.734375 27.011719 C 75.9375 20.984375 86.71875 16.925781 81.730469 24.578125 C 80.691406 26.199219 78.949219 27.589844 76.863281 29.214844 C 76.746094 29.5625 76.746094 29.792969 76.632812 30.140625 C 76.632812 30.371094 76.632812 30.605469 76.515625 30.835938 C 75.9375 32.460938 77.09375 33.386719 78.949219 33.039062 C 79.761719 32.921875 80.921875 32.574219 82.3125 31.648438 C 83.472656 30.953125 84.632812 30.140625 85.90625 28.980469 C 86.253906 27.707031 86.832031 26.316406 87.53125 24.925781 C 88.804688 22.488281 91.007812 19.824219 94.136719 16.34375 C 97.035156 13.097656 105.613281 5.5625 107.816406 5.679688 C 108.164062 5.679688 108.398438 5.796875 108.628906 6.027344 C 108.859375 6.257812 108.976562 6.492188 108.976562 6.839844 C 108.976562 7.882812 106.542969 10.664062 103.179688 14.722656 C 99.820312 18.78125 94.367188 23.417969 88.804688 29.097656 L 88.804688 30.722656 C 91.820312 27.707031 103.761719 18.085938 105.265625 19.359375 C 111.992188 25.273438 99.820312 29.910156 98.195312 31.183594 L 97.730469 31.53125 C 100.28125 36.515625 105.152344 31.878906 109.554688 28.171875 L 110.019531 30.023438 C 107.121094 32.921875 104.804688 34.894531 102.949219 36.054688 C 100.398438 37.675781 97.964844 38.71875 95.644531 36.515625 C 94.71875 35.589844 93.09375 33.96875 92.050781 31.765625 C 90.542969 32.460938 90.542969 32.921875 89.964844 33.96875 C 88.109375 37.675781 85.675781 37.214844 85.675781 31.53125 C 84.050781 33.269531 82.660156 34.546875 81.386719 35.472656 C 79.761719 36.632812 78.140625 37.214844 76.863281 37.214844 C 75.472656 37.214844 74.3125 36.632812 73.5 35.589844 C 72.691406 34.546875 72.34375 33.039062 72.34375 31.183594 C 70.253906 33.15625 68.285156 34.664062 66.546875 35.820312 C 64.34375 37.214844 62.488281 38.023438 61.097656 38.023438 C 60.054688 38.023438 59.359375 37.792969 58.777344 37.214844 C 58.199219 36.75 57.964844 35.9375 57.964844 35.011719 C 57.964844 34.199219 58.082031 33.386719 58.429688 32.460938 C 58.777344 31.53125 59.242188 30.488281 59.820312 29.445312 C 57.851562 33.15625 41.386719 45.792969 48.691406 29.792969 Z M 16.578125 23.070312 L 14.375 25.503906 C 13.796875 26.199219 13.332031 26.777344 12.984375 27.472656 C 12.636719 28.054688 12.40625 28.632812 12.40625 28.980469 C 12.40625 29.675781 12.867188 30.257812 13.910156 30.71875 C 14.957031 31.300781 16.113281 31.53125 17.507812 31.53125 C 19.941406 31.53125 22.257812 30.953125 24.578125 29.792969 C 26.898438 28.632812 28.054688 27.589844 28.054688 26.546875 C 28.054688 25.851562 27.011719 25.15625 25.042969 24.574219 C 23.070312 23.878906 20.289062 23.417969 16.578125 23.070312 Z M 95.179688 28.980469 L 97.035156 30.023438 C 99.238281 28.402344 101.558594 27.011719 102.484375 26.199219 C 106.078125 22.953125 101.671875 24.113281 100.164062 25.15625 C 98.773438 26.199219 96.917969 27.359375 95.179688 28.980469 Z M 82.542969 17.734375 C 82.542969 16.691406 83.007812 15.765625 83.933594 14.835938 C 84.863281 13.910156 85.789062 13.445312 86.71875 13.445312 C 87.179688 13.445312 87.644531 13.5625 87.878906 13.792969 C 88.109375 14.027344 88.222656 14.488281 88.222656 14.953125 C 88.222656 15.882812 87.761719 16.808594 86.832031 17.734375 C 85.90625 18.78125 85.09375 19.242188 84.167969 19.242188 C 83.703125 19.242188 83.238281 19.128906 82.890625 18.78125 C 82.660156 18.546875 82.542969 18.199219 82.542969 17.734375 Z M 51.359375 23.417969 C 36.980469 27.242188 36.980469 33.269531 39.417969 33.269531 C 40.226562 33.269531 41.734375 32.34375 44.171875 30.371094 C 46.605469 28.285156 48.921875 26.429688 51.359375 23.417969 "/>
<g clip-path="url(#clip1)" clip-rule="nonzero">
<path style=" stroke:none;fill-rule:nonzero;fill:rgb(97.657776%,87.153625%,2.114868%);fill-opacity:1;" d="M 28.867188 0.347656 C 26.199219 2.898438 16.925781 16.460938 8.347656 27.125 L 7.070312 28.632812 L 6.839844 29.910156 C 6.839844 30.140625 -4.058594 30.605469 1.96875 44.167969 C 1.273438 45.328125 0.695312 45.328125 0.578125 48.34375 C 0.8125 48.457031 1.042969 48.457031 1.273438 48.34375 C 1.390625 46.488281 1.855469 45.097656 4.171875 43.355469 C 6.261719 41.617188 12.40625 36.980469 13.910156 31.300781 C 14.027344 30.722656 14.261719 30.257812 14.492188 29.675781 L 33.503906 3.359375 C 33.503906 3.359375 31.070312 -0.695312 28.867188 0.347656 "/>
</g>
<path style=" stroke:none;fill-rule:nonzero;fill:rgb(88.484192%,67.256165%,6.829834%);fill-opacity:1;" d="M 30.839844 2.433594 C 28.289062 5.5625 21.214844 16.230469 12.636719 26.894531 L 11.128906 27.011719 C 13.566406 28.285156 13.101562 29.097656 13.910156 31.183594 C 14.027344 31.417969 14.261719 30.023438 14.492188 29.675781 L 33.503906 3.359375 C 33.503906 3.359375 32.578125 1.738281 31.300781 0.808594 C 30.722656 0.347656 31.996094 2.199219 30.839844 2.433594 "/>
<path style=" stroke:none;fill-rule:nonzero;fill:rgb(43.293762%,20.433044%,9.339905%);fill-opacity:1;" d="M 32.34375 3.59375 C 29.792969 6.722656 24.230469 15.996094 15.652344 26.777344 C 15.535156 26.316406 15.417969 25.851562 15.535156 25.273438 C 14.027344 26.316406 12.984375 28.75 13.910156 31.300781 C 14.027344 30.71875 14.492188 30.023438 14.492188 29.675781 L 33.503906 3.359375 C 33.390625 3.246094 33.273438 2.199219 32.34375 1.503906 C 31.765625 1.042969 33.039062 3.011719 32.34375 3.59375 "/>
<path style=" stroke:none;fill-rule:nonzero;fill:rgb(43.293762%,20.433044%,9.339905%);fill-opacity:1;" d="M 8.464844 33.851562 C 8 36.980469 5.914062 38.140625 5.449219 38.605469 C 5.332031 38.71875 5.449219 40.691406 5.21875 42.546875 C 7.070312 40.574219 16.695312 31.996094 10.085938 28.632812 C 12.984375 30.953125 9.273438 33.617188 8.464844 33.851562 "/>
<path style=" stroke:none;fill-rule:nonzero;fill:rgb(31.790161%,17.25769%,10.470581%);fill-opacity:1;" d="M 6.027344 37.097656 C 10.085938 33.15625 6.144531 29.792969 3.363281 32.34375 C -0.8125 36.167969 2.78125 40.34375 6.027344 37.097656 "/>
<path style=" stroke:none;fill-rule:nonzero;fill:rgb(75.401306%,9.754944%,32.542419%);fill-opacity:1;" d="M 134.480469 27.9375 C 133.554688 28.75 124.164062 36.515625 122.65625 36.285156 C 119.527344 35.9375 116.164062 29.792969 117.789062 26.777344 C 118.367188 25.734375 119.0625 24.226562 120.339844 22.953125 C 124.394531 18.78125 131.699219 15.417969 138.074219 14.027344 C 138.769531 13.910156 139.46875 13.910156 140.394531 13.910156 C 142.019531 14.375 143.523438 15.648438 143.40625 16.925781 C 143.40625 17.15625 143.292969 17.273438 143.175781 17.386719 C 143.0625 17.503906 142.714844 17.621094 142.363281 17.851562 L 141.320312 18.433594 C 142.480469 18.78125 142.945312 19.476562 143.0625 20.402344 C 143.292969 22.027344 141.320312 23.996094 139.816406 25.851562 C 136.914062 29.328125 137.265625 32.574219 141.554688 30.488281 C 144.335938 29.214844 148.394531 25.15625 151.058594 23.183594 C 154.652344 19.359375 160.796875 18.316406 157.203125 24.113281 C 156.160156 25.734375 154.191406 27.125 152.105469 28.75 C 152.105469 28.867188 151.640625 29.675781 151.640625 29.792969 C 151.640625 31.648438 152.566406 32.691406 154.304688 32.460938 C 155.929688 32.226562 157.320312 31.417969 158.480469 30.371094 C 159.753906 29.214844 160.914062 27.9375 162.074219 26.429688 C 161.726562 26.429688 161.144531 26.429688 161.03125 26.082031 C 159.753906 24.113281 162.304688 21.097656 162.886719 20.519531 C 163 20.402344 166.710938 16.808594 167.636719 18.546875 C 167.871094 18.894531 167.523438 19.9375 167.289062 20.285156 C 168.796875 20.171875 170.074219 19.824219 171.695312 19.707031 C 172.390625 19.589844 174.363281 19.242188 174.59375 19.589844 C 176.449219 21.5625 176.335938 23.300781 174.363281 25.039062 C 172.507812 26.664062 171.347656 28.167969 170.769531 29.214844 C 169.609375 31.183594 170.535156 32.691406 172.855469 31.878906 C 174.246094 31.417969 176.101562 29.792969 178.304688 27.820312 L 178.769531 29.445312 C 175.984375 32.460938 173.320312 34.664062 171.464844 35.9375 C 166.59375 39.066406 164.160156 34.316406 166.132812 30.257812 C 166.828125 28.75 168.101562 27.011719 170.074219 25.15625 C 168.914062 25.386719 167.871094 25.621094 167.058594 25.734375 C 166.246094 25.851562 165.550781 25.96875 164.855469 26.082031 C 164.160156 27.125 163.8125 27.820312 163 28.75 C 160.566406 31.417969 158.246094 34.082031 156.507812 35.359375 C 154.886719 36.515625 153.148438 37.328125 151.757812 37.328125 C 148.160156 37.445312 147.234375 33.617188 147.351562 30.953125 C 147.351562 30.605469 147.464844 30.257812 147.464844 30.023438 C 143.292969 34.082031 136.335938 38.371094 135.175781 38.257812 C 129.382812 37.445312 133.785156 30.140625 134.480469 27.9375 Z M 157.203125 17.273438 C 157.089844 16.230469 157.667969 15.300781 158.597656 14.375 C 159.523438 13.332031 162.769531 12.171875 163 14.605469 C 163.117188 15.417969 162.539062 16.34375 161.726562 17.386719 C 160.796875 18.433594 159.988281 18.894531 159.058594 18.894531 C 158.597656 18.894531 158.132812 18.78125 157.785156 18.433594 C 157.320312 18.082031 157.203125 17.734375 157.203125 17.273438 Z M 137.960938 19.824219 C 131.699219 21.445312 128.222656 23.648438 125.902344 24.691406 C 120.339844 27.472656 119.757812 36.863281 128.453125 28.632812 C 131.121094 26.316406 134.828125 23.183594 137.960938 19.824219 "/>
<path style=" stroke:none;fill-rule:nonzero;fill:rgb(75.401306%,9.754944%,32.542419%);fill-opacity:1;" d="M 29.445312 9.15625 C 27.59375 9.273438 25.621094 9.503906 23.535156 9.851562 C 22.722656 9.96875 21.910156 10.199219 21.097656 10.316406 C 19.128906 10.78125 17.15625 11.359375 14.957031 12.054688 C 16 12.402344 16.113281 12.984375 15.1875 13.792969 L 8.925781 15.417969 C 8.230469 15.535156 4.289062 17.503906 5.101562 14.605469 C 5.796875 12.054688 8.695312 8.578125 10.203125 7.648438 C 10.898438 7.1875 11.824219 6.722656 13.101562 6.375 C 16.347656 5.445312 21.097656 4.171875 25.851562 3.707031 C 28.289062 3.476562 30.722656 3.476562 33.039062 3.824219 L 29.445312 9.15625 "/>
</g>
</svg>

<svg xmlns="http://www.w3.org/2000/svg" width="179pt" height="64.92" viewBox="0 0 179 48.69"><defs><clipPath id="a"><path d="M0 0h34v48.691H0Zm0 0"/></clipPath></defs><path d="M48.691 29.793c-2.78 2.203-7.535 6.262-9.62 6.84-1.856-.23-3.481-2.781-4.176-4.637-6.028 4.172-21.098 7.418-25.735 3.711-1.625-1.277-2.668-2.32-2.668-3.828 0-.926.23-1.738.578-2.664.348-.93 1.043-1.973 1.856-3.016l2.668-3.363c-7.188-.695-3.13-4.055 3.824-4.055 2.434-2.437 4.871-4.87 6.492-5.914 1.625-1.043 3.016-1.508 4.29-1.508.116 0 .234 0 .347.118.117.113.117.23.117.347 0 .114 0 .23-.117.465-.113.23-.23.348-.461.578l-4.29 4.754c4.056-.582 7.536-1.508 10.087-2.668 2.55-1.16 3.594-2.433 3.594-3.594 0-.695-.465-1.273-1.391-1.62-.93-.466-2.09-.583-3.598-.583-2.086 0-4.52.235-7.187.813-2.664.465-5.45 1.273-8.578 2.32 1.043.348 1.16.926.234 1.738l-6.262 1.621c-.695.118-4.636 2.086-3.828-.812.7-2.547 3.594-6.027 5.102-6.953.695-.465 1.625-.93 2.898-1.278 6.262-1.855 18.32-4.867 24.926-1.043 3.941 3.364.695 9.274-3.594 10.782-3.824 1.277-8.46 2.898-14.953 3.593l-1.394 1.278c3.597.695 20.87 1.508 14.03 9.504-.347.347-.695.812-1.042 1.16 1.273-.578 2.664-1.39 3.941-2.781.23-.465.461-.926.809-1.391.93-1.277 2.09-2.55 3.71-3.594 3.595-2.55 8-4.636 12.52-5.218.582-.114 2.09.117 2.668.695.465.582.696.812.926 1.277.117.113 0 .461-.113.578-.348.235-1.16.696-1.625.93 1.972 1.043 2.09 2.2-.926 5.563-4.871 6.609.926 5.68 5.797.812v-.117c1.273-1.274 2.433-2.434 3.36-3.477.929-1.043 1.277-1.508 2.09-2.55-1.395-.231-3.712.464-4.29 0-.234-.348.695-1.739 1.504-2.669 2.09-2.78 3.594-2.898 6.84-3.011.117-.235.582-.582.695-.93 1.742-3.941 9.277-5.101 3.945.813.809 0 2.317.464 2.782.23.117-.113-.348 1.742-.696 2.203-.695 1.278-1.972 2.899-2.785 3.246-.344.235-1.851.348-2.433.348-.461 0-.813-.113-1.043-.113s-.465.113-.696.113c-1.39 1.625-2.433 3.246-3.246 4.988-.812 1.738-1.273 3.36-1.273 4.637 0 .46.113.812.347 1.043q.346.346 1.043.348c.696 0 1.739-.465 3.246-1.391 1.274-.813 3.012-2.086 5.102-3.828.23-.461.461-1.043.695-1.621 2.204-6.028 12.985-10.086 7.996-2.434-1.039 1.621-2.78 3.012-4.867 4.637-.117.348-.117.578-.23.926 0 .23 0 .464-.117.695-.579 1.625.578 2.55 2.433 2.203.813-.117 1.973-.465 3.364-1.39a22 22 0 0 0 3.593-2.669c.348-1.273.926-2.664 1.625-4.054 1.274-2.438 3.477-5.102 6.606-8.582 2.898-3.246 11.476-10.782 13.68-10.664.347 0 .581.117.812.347.23.23.348.465.348.813 0 1.043-2.434 3.824-5.797 7.883-3.36 4.058-8.813 8.695-14.375 14.375v1.625c3.015-3.016 14.957-12.637 16.46-11.364 6.727 5.914-5.445 10.551-7.07 11.825l-.465.347c2.551 4.985 7.422.348 11.825-3.36l.465 1.852c-2.899 2.899-5.215 4.872-7.07 6.032-2.552 1.62-4.985 2.664-7.305.46-.926-.925-2.551-2.546-3.594-4.75-1.508.696-1.508 1.157-2.086 2.204-1.856 3.707-4.29 3.246-4.29-2.438-1.624 1.739-3.015 3.016-4.288 3.942-1.625 1.16-3.246 1.742-4.524 1.742-1.39 0-2.55-.582-3.363-1.625-.809-1.043-1.156-2.55-1.156-4.406a44 44 0 0 1-5.797 4.636c-2.203 1.395-4.059 2.203-5.45 2.203-1.042 0-1.738-.23-2.32-.808-.578-.465-.812-1.278-.812-2.203 0-.813.117-1.625.465-2.551.347-.93.812-1.973 1.39-3.016-1.968 3.711-18.433 16.348-11.129.348M16.578 23.07l-2.203 2.434c-.578.695-1.043 1.273-1.39 1.969-.348.582-.579 1.16-.579 1.507 0 .696.461 1.278 1.504 1.739 1.047.582 2.203.812 3.598.812 2.433 0 4.75-.578 7.07-1.738s3.477-2.203 3.477-3.246c0-.695-1.043-1.39-3.012-1.973-1.973-.695-4.754-1.156-8.465-1.504m78.602 5.91 1.855 1.043c2.203-1.62 4.524-3.011 5.45-3.824 3.593-3.246-.813-2.086-2.32-1.043-1.392 1.043-3.247 2.203-4.985 3.824M82.543 17.734c0-1.043.465-1.968 1.39-2.898.93-.926 1.856-1.39 2.786-1.39.46 0 .926.117 1.16.347.23.234.344.695.344 1.16 0 .93-.461 1.856-1.391 2.781-.926 1.047-1.738 1.508-2.664 1.508-.465 0-.93-.113-1.277-.46q-.346-.351-.348-1.048m-31.184 5.684C36.98 27.242 36.98 33.27 39.418 33.27c.809 0 2.316-.926 4.754-2.899 2.433-2.086 4.75-3.941 7.187-6.953" style="stroke:none;fill-rule:nonzero;fill:#c01953;fill-opacity:1"/><g clip-path="url(#a)"><path d="M28.867.348C26.2 2.898 16.926 16.46 8.347 27.125L7.07 28.633l-.23 1.277c0 .23-10.899.695-4.871 14.258-.696 1.16-1.274 1.16-1.39 4.176a.75.75 0 0 0 .694 0c.118-1.856.582-3.246 2.899-4.989 2.09-1.738 8.234-6.375 9.738-12.054.117-.578.352-1.043.582-1.625L33.504 3.359S31.07-.695 28.867.348" style="stroke:none;fill-rule:nonzero;fill:#f9de05;fill-opacity:1"/></g><path d="M30.84 2.434c-2.55 3.129-9.625 13.796-18.203 24.46l-1.508.118c2.437 1.273 1.973 2.086 2.781 4.172.117.234.352-1.16.582-1.508L33.504 3.359S32.578 1.74 31.3.81c-.578-.461.695 1.39-.461 1.625" style="stroke:none;fill-rule:nonzero;fill:#e2ac11;fill-opacity:1"/><path d="M32.344 3.594c-2.551 3.129-8.114 12.402-16.692 23.183-.117-.46-.234-.925-.117-1.504-1.508 1.043-2.55 3.477-1.625 6.028.117-.582.582-1.278.582-1.625L33.504 3.359c-.113-.113-.23-1.16-1.16-1.855-.578-.461.695 1.508 0 2.09M8.465 33.852C8 36.98 5.915 38.14 5.449 38.605c-.117.114 0 2.086-.23 3.942 1.851-1.973 11.476-10.55 4.867-13.914 2.898 2.32-.813 4.984-1.621 5.219" style="stroke:none;fill-rule:nonzero;fill:#6e3418;fill-opacity:1"/><path d="M6.027 37.098c4.059-3.942.118-7.305-2.664-4.754-4.175 3.824-.582 8 2.664 4.754" style="stroke:none;fill-rule:nonzero;fill:#512c1b;fill-opacity:1"/><path d="M134.48 27.938c-.925.812-10.316 8.578-11.824 8.347-3.129-.347-6.492-6.492-4.867-9.508.578-1.043 1.273-2.55 2.55-3.824 4.056-4.172 11.36-7.535 17.735-8.926.696-.117 1.395-.117 2.32-.117 1.626.465 3.13 1.738 3.012 3.016 0 .23-.113.347-.23.46-.113.118-.461.235-.813.466l-1.043.582c1.16.347 1.625 1.043 1.743 1.968.23 1.625-1.743 3.594-3.247 5.45-2.902 3.476-2.55 6.722 1.739 4.636 2.78-1.273 6.84-5.332 9.504-7.304 3.593-3.825 9.738-4.868 6.144.93-1.043 1.62-3.012 3.011-5.098 4.636 0 .117-.464.926-.464 1.043 0 1.855.925 2.898 2.664 2.668 1.625-.234 3.015-1.043 4.175-2.09 1.274-1.156 2.434-2.433 3.594-3.941-.347 0-.93 0-1.043-.348-1.277-1.969 1.274-4.984 1.856-5.562.113-.118 3.824-3.711 4.75-1.973.234.348-.114 1.39-.348 1.738 1.508-.113 2.785-.46 4.406-.578.696-.117 2.668-.465 2.899-.117 1.855 1.973 1.742 3.71-.23 5.45-1.856 1.624-3.016 3.128-3.594 4.175-1.16 1.969-.235 3.476 2.085 2.664 1.391-.461 3.247-2.086 5.45-4.059l.465 1.625c-2.786 3.016-5.45 5.22-7.305 6.493-4.871 3.128-7.305-1.622-5.332-5.68.695-1.508 1.969-3.246 3.941-5.102-1.16.23-2.203.465-3.015.578-.813.118-1.508.235-2.204.348-.695 1.043-1.042 1.738-1.855 2.668-2.434 2.668-4.754 5.332-6.492 6.61-1.621 1.156-3.36 1.968-4.75 1.968-3.598.117-4.524-3.71-4.406-6.375 0-.348.113-.695.113-.93-4.172 4.059-11.13 8.348-12.29 8.235-5.792-.813-1.39-8.117-.695-10.32m22.723-10.665c-.113-1.043.465-1.972 1.395-2.898.925-1.043 4.172-2.203 4.402.23.117.813-.46 1.739-1.273 2.782-.93 1.047-1.739 1.508-2.668 1.508-.461 0-.926-.114-1.274-.461-.465-.352-.582-.7-.582-1.16m-19.242 2.551c-6.262 1.621-9.738 3.824-12.059 4.867-5.562 2.782-6.144 12.172 2.551 3.942 2.668-2.317 6.375-5.45 9.508-8.809M29.445 9.156a59 59 0 0 0-5.91.696c-.812.117-1.625.347-2.437.464-1.97.465-3.942 1.043-6.141 1.739 1.043.347 1.156.93.23 1.738l-6.261 1.625c-.696.117-4.637 2.086-3.824-.813.695-2.55 3.593-6.027 5.101-6.957.695-.46 1.621-.925 2.899-1.273 3.246-.93 7.996-2.203 12.75-2.668 2.437-.23 4.87-.23 7.187.117z" style="stroke:none;fill-rule:nonzero;fill:#c01953;fill-opacity:1"/></svg>
